X:21
T:Jimmy Ward's
R:jig
O:Ireland
M:6/8
L:1/8
K:G
"G" G2 G     GAB | "C" AGE "G" GED | "G" ~G3      AGE | "C" GED "D" DEF |
"G" G2 G     GAB | "C" AGE "G" GAB | "C" cBA  "G" BGE |1 "D" ~D3    DEF :|2 "D" DED D2 B ||
"C" c2 A "G" BAG | "D" ABA     AGE | "C" c2 A "G" BGE | "D"  DED  D2  B |
"C" c2 A "G" BAG | "D" ABA     ABc | "D" dcA  "C" GEA |1 "D" DED  D2  B :|2 "D" D2 B cAF |]
